X:2
T:Shady Grove [1]
M:4/4
L:1/8
K:A Dorian
E2|A2 AA A2 AA|BcBA G2 GE|A2 AA B2d2|e3 d e2 ee|
g2 gg e2 ee|dB A2G2 GG|A2 BG d2B2|A3G A2||

